Assets/stackedit/icon.svg

<svg xmlns="http://www.w3.org/2000/svg" viewBox="0 0 24 24" fill-rule="evenodd" stroke-linejoin="round" clip-rule="evenodd" stroke-miterlimit="1.414"><link xmlns="" type="text/css" id="dark-mode" rel="stylesheet" href=""/><style xmlns="" type="text/css" id="dark-mode-custom-style"/><path d="M 24 6 c 0 -3.3 -2.7 -6 -6 -6 H 6 C 2.7 0 0 2.7 0 6 v 12 c 0 3.3 2.7 6 6 6 h 12 c 3.3 0 6 -2.7 6 -6 V 6 z" fill="none"/><clipPath id="prefix__a"><path d="M 24 6 c 0 -3.3 -2.7 -6 -6 -6 H 6 C 2.7 0 0 2.7 0 6 v 12 c 0 3.3 2.7 6 6 6 h 12 c 3.3 0 6 -2.7 6 -6 V 6 z"/></clipPath><g clip-path="url(#prefix__a)"><path d="M 24 0 H 0 l 12 12 L 24 0 z" fill="gold"/><path d="M 0 0 v 24 l 12 -12 L 0 0 z" fill="#a5c700"/><path d="M 0 24 h 24 L 12 12 L 0 24 z" fill="#ff8a00"/><path d="M 24 24 V 0 L 12 12 l 12 12 z" fill="#66aefd"/><path d="M 22.5 -1.5 L 12 9 l 3 3 L 25.5 1.5 l -3 -3 z" fill="url(#prefix___Linear2)"/><path d="M 25.5 22.5 L 15 12 l -3 3 l 10.5 10.5 l 3 -3 z" fill="url(#prefix___Linear3)"/><path d="M 1.5 25.5 L 12 15 l -3 -3 l -10.5 10.5 l 3 3 z" fill="url(#prefix___Linear4)"/><path d="M -1.5 1.5 L 9 12 l 3 -3 L 1.5 -1.5 l -3 3 z" fill="url(#prefix___Linear5)"/></g><path d="M 21.8 5.9 c 0 -2.2 -1.8 -4 -4 -4 H 6.3 c -2.2 0 -4 1.8 -4 4 v 11.5 c 0 2.2 1.8 4 4 4 h 11.5 c 2.2 0 4 -1.8 4 -4 V 5.9 z" fill="#ffffff"/><path d="m 4.6 6 h 1.4 v -1.8 h 1.4 v 1.8 h 1.7 v -1.8 h 1.4 v 1.8 h 1.4 v 1.7 h -1.4 v 1.9 h 1.4 v 1.7 h -1.4 v 1.8 h -1.4 v -1.8 h -1.7 v 1.8 h -1.4 v -1.8 h -1.4 v -1.7 h 1.4 v -1.9 h -1.4 v -1.7 z m 2.8 1.7 v 1.9 h 1.7 v -1.9 h -1.7 z m 3.7 6.7 v 2.1 h 3 v 3 h 2.1 v -3 h 3 v -2.1 h -3 v -3 h -2.1 v 3 z" fill="#737373"/><defs><linearGradient id="prefix___Linear2" x1="0" y1="0" x2="1" y2="0" gradientUnits="userSpaceOnUse" gradientTransform="matrix(-2.99995 -3 3 -2.99995 23.997 3.003)"><stop offset="0" stop-color="#66aefd"/><stop offset="1" stop-color="gold"/></linearGradient><linearGradient id="prefix___Linear3" x1="0" y1="0" x2="1" y2="0" gradientUnits="userSpaceOnUse" gradientTransform="matrix(3 -2.99995 2.99995 3 20.999 24.003)"><stop offset="0" stop-color="#ff8a00"/><stop offset="1" stop-color="#66aefd"/></linearGradient><linearGradient id="prefix___Linear4" x1="0" y1="0" x2="1" y2="0" gradientUnits="userSpaceOnUse" gradientTransform="matrix(2.99995 3 -3 2.99995 -.003 21.001)"><stop offset="0" stop-color="#a5c700"/><stop offset="1" stop-color="#ff8a00"/></linearGradient><linearGradient id="prefix___Linear5" x1="0" y1="0" x2="1" y2="0" gradientUnits="userSpaceOnUse" gradientTransform="matrix(-3 2.99995 -2.99995 -3 2.997 .003)"><stop offset="0" stop-color="gold"/><stop offset="1" stop-color="#a5c700"/></linearGradient></defs></svg>

<svg xmlns="http://www.w3.org/2000/svg" viewBox="0 0 24 24" fill-rule="evenodd" stroke-linejoin="round" clip-rule="evenodd" stroke-miterlimit="1.414"><link xmlns="" type="text/css" id="dark-mode" rel="stylesheet" href=""/><style xmlns="" type="text/css" id="dark-mode-custom-style"/><path d="M 24 6 c 0 -3.3 -2.7 -6 -6 -6 H 6 C 2.7 0 0 2.7 0 6 v 12 c 0 3.3 2.7 6 6 6 h 12 c 3.3 0 6 -2.7 6 -6 V 6 z" fill="none"/><clipPath id="prefix__a"><path d="M 24 6 c 0 -3.3 -2.7 -6 -6 -6 H 6 C 2.7 0 0 2.7 0 6 v 12 c 0 3.3 2.7 6 6 6 h 12 c 3.3 0 6 -2.7 6 -6 V 6 z"/></clipPath><g clip-path="url(#prefix__a)"><path d="M 24 0 H 0 l 12 12 L 24 0 z" fill="gold"/><path d="M 0 0 v 24 l 12 -12 L 0 0 z" fill="#a5c700"/><path d="M 0 24 h 24 L 12 12 L 0 24 z" fill="#ff8a00"/><path d="M 24 24 V 0 L 12 12 l 12 12 z" fill="#66aefd"/><path d="M 22.5 -1.5 L 12 9 l 3 3 L 25.5 1.5 l -3 -3 z" fill="url(#prefix___Linear2)"/><path d="M 25.5 22.5 L 15 12 l -3 3 l 10.5 10.5 l 3 -3 z" fill="url(#prefix___Linear3)"/><path d="M 1.5 25.5 L 12 15 l -3 -3 l -10.5 10.5 l 3 3 z" fill="url(#prefix___Linear4)"/><path d="M -1.5 1.5 L 9 12 l 3 -3 L 1.5 -1.5 l -3 3 z" fill="url(#prefix___Linear5)"/></g><path d="M 21.8 5.9 c 0 -2.2 -1.8 -4 -4 -4 H 6.3 c -2.2 0 -4 1.8 -4 4 v 11.5 c 0 2.2 1.8 4 4 4 h 11.5 c 2.2 0 4 -1.8 4 -4 V 5.9 z" fill="#ffffff"/><path d="M 4.6 6 L 6 6 L 6 4.2 L 7.4 4.2 L 7.4 6 L 9.1 6 L 9.1 4.2 L 10.5 4.2 L 10.5 6 L 11.9 6 L 11.9 7.7 L 10.5 7.7 L 10.5 9.6 L 11.9 9.6 L 11.9 11.3 L 10.5 11.3 L 10.5 13.1 L 9.1 13.1 L 9.1 11.3 L 7.4 11.3 L 7.4 13.1 L 6 13.1 L 6 11.3 L 4.6 11.3 L 4.6 9.6 L 6 9.6 L 6 7.7 L 4.6 7.7 L 4.6 6 Z M 7.4 7.7 L 7.4 9.6 L 9.1 9.6 L 9.1 7.7 L 7.4 7.7 Z" fill="#737373"/><defs><linearGradient id="prefix___Linear2" x1="0" y1="0" x2="1" y2="0" gradientUnits="userSpaceOnUse" gradientTransform="matrix(-2.99995 -3 3 -2.99995 23.997 3.003)"><stop offset="0" stop-color="#66aefd"/><stop offset="1" stop-color="gold"/></linearGradient><linearGradient id="prefix___Linear3" x1="0" y1="0" x2="1" y2="0" gradientUnits="userSpaceOnUse" gradientTransform="matrix(3 -2.99995 2.99995 3 20.999 24.003)"><stop offset="0" stop-color="#ff8a00"/><stop offset="1" stop-color="#66aefd"/></linearGradient><linearGradient id="prefix___Linear4" x1="0" y1="0" x2="1" y2="0" gradientUnits="userSpaceOnUse" gradientTransform="matrix(2.99995 3 -3 2.99995 -.003 21.001)"><stop offset="0" stop-color="#a5c700"/><stop offset="1" stop-color="#ff8a00"/></linearGradient><linearGradient id="prefix___Linear5" x1="0" y1="0" x2="1" y2="0" gradientUnits="userSpaceOnUse" gradientTransform="matrix(-3 2.99995 -2.99995 -3 2.997 .003)"><stop offset="0" stop-color="gold"/><stop offset="1" stop-color="#a5c700"/></linearGradient></defs></svg>
